Frontend/dist/icon2.svg

<svg width="114" height="122" viewBox="0 0 114 122" fill="none" xmlns="http://www.w3.org/2000/svg">
<path d="M108.406 102.544H106.112V92.4979C106.112 89.3388 103.542 86.7687 100.383 86.7687H62.9157C62.8129 86.7687 62.7293 86.6849 62.7293 86.5823V82.4519H80.6632C83.8226 82.4519 86.3927 79.8818 86.3927 76.7225V32.2132L87.6763 33.0688C88.5114 33.6256 89.5132 33.8237 90.4976 33.6271C91.4817 33.4302 92.3304 32.8619 92.887 32.0268L95.0748 28.7454C96.2241 27.0216 95.7566 24.684 94.0326 23.5347L60.178 0.965222C58.2476 -0.321741 55.7524 -0.321741 53.822 0.965222L19.9674 23.5347C18.2436 24.684 17.7761 27.0213 18.9254 28.7451L21.113 32.0268C21.6698 32.8619 22.5183 33.4302 23.5027 33.6271C23.7507 33.6766 23.9997 33.7011 24.2473 33.7011C24.9813 33.7011 25.6993 33.4852 26.3237 33.0688L27.6073 32.2132V37.6565C27.6073 38.6426 28.4067 39.442 29.3928 39.442C30.3788 39.442 31.1783 38.6426 31.1783 37.6565V29.8326L56.8968 12.6872C56.9596 12.6453 57.0406 12.6453 57.1037 12.6872L82.822 29.8326V55.2174H78.624C76.5893 55.2174 74.934 56.8726 74.934 58.9073V62.9863C74.934 65.021 76.5893 66.6763 78.624 66.6763H82.8217V76.7225C82.8217 77.9126 81.8535 78.881 80.6632 78.881H78.505V74.6832C78.505 72.6485 76.8497 70.9933 74.815 70.9933H70.6173V66.7953C70.6173 64.7606 68.962 63.1053 66.9273 63.1053H66.6733V50.9006H66.9273C68.962 50.9006 70.6173 49.2454 70.6173 47.2107V43.1319C70.6173 41.0972 68.962 39.442 66.9273 39.442H47.0729C45.0382 39.442 43.383 41.0972 43.383 43.1319V47.2107C43.383 49.2454 45.0382 50.9006 47.0729 50.9006H47.327V63.1053H47.0729C45.0382 63.1053 43.383 64.7606 43.383 66.7953V70.993H39.1852C37.1505 70.993 35.4953 72.6483 35.4953 74.683V78.8808H33.337C32.1469 78.8808 31.1785 77.9125 31.1785 76.7222V66.676H35.3762C37.411 66.676 39.0662 65.0208 39.0662 62.9861V58.9071C39.0662 56.8724 37.411 55.2172 35.3762 55.2172H31.1783V44.7984C31.1783 43.8123 30.3788 43.0129 29.3928 43.0129C28.4067 43.0129 27.6073 43.8123 27.6073 44.7984V76.7225C27.6073 79.8816 30.1774 82.4519 33.3368 82.4519H51.2707V86.5823C51.2707 86.6851 51.1869 86.7687 51.0843 86.7687H13.6171C10.4581 86.7687 7.88795 89.3388 7.88795 92.4979V102.544H5.59445C2.50965 102.544 0 105.054 0 108.139V116.296C0 119.381 2.50965 121.891 5.59445 121.891H21.6398C24.7246 121.891 27.2343 119.381 27.2343 116.296V108.139C27.2343 105.054 24.7246 102.544 21.6398 102.544H19.3466V98.4137C19.3466 98.3109 19.4304 98.2273 19.533 98.2273H25.8216C26.8077 98.2273 27.6071 97.4279 27.6071 96.4419C27.6071 95.4558 26.8077 94.6564 25.8216 94.6564H19.533C17.4611 94.6564 15.7757 96.3419 15.7757 98.4137V102.544H11.4589V92.4979C11.4589 91.3078 12.4271 90.3396 13.6171 90.3396H51.084C53.1559 90.3396 54.8414 88.6539 54.8414 86.5823V82.4519H59.1584V86.5823C59.1584 88.6541 60.8439 90.3396 62.9157 90.3396H100.383C101.573 90.3396 102.541 91.3078 102.541 92.4979V102.544H98.2243V98.4137C98.2243 96.3419 96.5389 94.6564 94.467 94.6564H62.9157C60.8439 94.6564 59.1584 96.3419 59.1584 98.4137V102.544H54.8414V98.4137C54.8414 96.3419 53.1559 94.6564 51.084 94.6564H32.9635C31.9774 94.6564 31.178 95.4558 31.178 96.4419C31.178 97.4279 31.9774 98.2273 32.9635 98.2273H51.084C51.1869 98.2273 51.2704 98.3111 51.2704 98.4137V102.544H48.9772C45.8924 102.544 43.3827 105.054 43.3827 108.139V116.296C43.3827 119.381 45.8924 121.891 48.9772 121.891H65.0226C68.1074 121.891 70.617 119.381 70.617 116.296V108.139C70.617 105.054 68.1074 102.544 65.0226 102.544H62.7293V98.4137C62.7293 98.3109 62.8131 98.2273 62.9157 98.2273H94.467C94.5699 98.2273 94.6534 98.3111 94.6534 98.4137V102.544H92.3602C89.2754 102.544 86.7657 105.054 86.7657 108.139V116.296C86.7657 119.381 89.2754 121.891 92.3602 121.891H108.406C111.49 121.891 114 119.381 114 116.296V108.139C114 105.054 111.49 102.544 108.406 102.544ZM56.9999 9.08266C56.2743 9.08266 55.5487 9.29382 54.9156 9.7159L24.3428 30.0978C24.3002 30.1264 24.253 30.1357 24.2028 30.1254C24.1526 30.1154 24.1128 30.0888 24.0843 30.0462L21.8967 26.7645C21.8684 26.7219 21.8591 26.675 21.8691 26.6247C21.8791 26.5743 21.906 26.5345 21.9484 26.5059L55.8027 3.93647C56.5299 3.45154 57.4698 3.45154 58.1973 3.93647L92.0514 26.5059C92.094 26.5345 92.1209 26.5743 92.1309 26.6247C92.1409 26.675 92.1316 26.7221 92.1033 26.7647L89.9155 30.0464C89.8872 30.089 89.8472 30.1157 89.7972 30.1257C89.7467 30.1357 89.6998 30.1264 89.6572 30.0981L59.0844 9.7159C58.4511 9.29382 57.7257 9.08266 56.9999 9.08266ZM78.624 63.1053C78.5583 63.1053 78.505 63.052 78.505 62.9863V58.9073C78.505 58.8416 78.5583 58.7883 78.624 58.7883H82.8217V63.1053H78.624ZM35.376 58.7883C35.4417 58.7883 35.495 58.8416 35.495 58.9073V62.9863C35.495 63.052 35.4417 63.1053 35.376 63.1053H31.1783V58.7883H35.376ZM21.6398 106.115C22.7556 106.115 23.6634 107.023 23.6634 108.139V116.296C23.6634 117.412 22.7556 118.32 21.6398 118.32H5.59445C4.47866 118.32 3.57093 117.412 3.57093 116.296V108.139C3.57093 107.023 4.47866 106.115 5.59445 106.115H21.6398ZM63.1024 63.1053H58.7856V50.9006H63.1024V63.1053ZM46.9537 47.2107V43.1319C46.9537 43.0662 47.007 43.0129 47.0727 43.0129H66.9271C66.9928 43.0129 67.0461 43.0662 67.0461 43.1319V47.2107C67.0461 47.2764 66.9928 47.3297 66.9271 47.3297H47.0727C47.007 47.3297 46.9537 47.2761 46.9537 47.2107ZM50.8976 50.9006H55.2144V63.1053H50.8976V50.9006ZM46.9537 66.7953C46.9537 66.7296 47.007 66.6763 47.0727 66.6763H66.9271C66.9928 66.6763 67.0461 66.7296 67.0461 66.7953V70.993H46.9537V66.7953ZM39.066 78.8808V74.683C39.066 74.6173 39.1193 74.564 39.185 74.564H74.815C74.8807 74.564 74.934 74.6173 74.934 74.683V78.8808H39.066ZM67.0463 108.139V116.296C67.0463 117.412 66.1386 118.32 65.0228 118.32H48.9774C47.8616 118.32 46.9539 117.412 46.9539 116.296V108.139C46.9539 107.023 47.8616 106.115 48.9774 106.115H65.0228C66.1386 106.115 67.0463 107.023 67.0463 108.139ZM110.429 116.296C110.429 117.412 109.521 118.32 108.406 118.32H92.3602C91.2444 118.32 90.3366 117.412 90.3366 116.296V108.139C90.3366 107.023 91.2444 106.115 92.3602 106.115H108.406C109.521 106.115 110.429 107.023 110.429 108.139V116.296Z" fill="#F79009"/>
</svg>

<svg width="114" height="122" fill="none" xmlns="http://www.w3.org/2000/svg"><path d="M108.406 102.544h-2.294V92.498c0-3.16-2.57-5.73-5.729-5.73H62.916a.187.187 0 0 1-.187-.186v-4.13h17.934c3.16 0 5.73-2.57 5.73-5.73V32.213l1.283.856a3.734 3.734 0 0 0 2.822.558 3.733 3.733 0 0 0 2.389-1.6l2.188-3.282a3.762 3.762 0 0 0-1.042-5.21L60.178.965a5.714 5.714 0 0 0-6.356 0l-33.855 22.57a3.761 3.761 0 0 0-1.042 5.21l2.188 3.282a3.733 3.733 0 0 0 2.39 1.6 3.73 3.73 0 0 0 2.821-.558l1.283-.856v5.444a1.786 1.786 0 0 0 3.571 0v-7.824l25.719-17.146a.186.186 0 0 1 .207 0l25.718 17.146v25.384h-4.198a3.694 3.694 0 0 0-3.69 3.69v4.08a3.694 3.694 0 0 0 3.69 3.69h4.198v10.045a2.16 2.16 0 0 1-2.159 2.159h-2.158v-4.198a3.694 3.694 0 0 0-3.69-3.69h-4.198v-4.198a3.694 3.694 0 0 0-3.69-3.69h-.254V50.901h.254a3.694 3.694 0 0 0 3.69-3.69v-4.08a3.694 3.694 0 0 0-3.69-3.689H47.073a3.694 3.694 0 0 0-3.69 3.69v4.079a3.694 3.694 0 0 0 3.69 3.69h.254v12.204h-.254a3.694 3.694 0 0 0-3.69 3.69v4.198h-4.198a3.694 3.694 0 0 0-3.69 3.69v4.198h-2.158a2.161 2.161 0 0 1-2.159-2.159V66.676h4.198a3.694 3.694 0 0 0 3.69-3.69v-4.079a3.694 3.694 0 0 0-3.69-3.69h-4.198V44.798a1.786 1.786 0 0 0-3.57 0v31.924c0 3.16 2.57 5.73 5.729 5.73H51.27v4.13a.187.187 0 0 1-.187.187H13.617a5.736 5.736 0 0 0-5.73 5.729v10.046H5.595A5.601 5.601 0 0 0 0 108.139v8.157a5.601 5.601 0 0 0 5.594 5.595H21.64a5.601 5.601 0 0 0 5.594-5.595v-8.157a5.601 5.601 0 0 0-5.594-5.595h-2.293v-4.13c0-.103.083-.187.186-.187h6.289a1.785 1.785 0 1 0 0-3.57h-6.289a3.761 3.761 0 0 0-3.757 3.757v4.13h-4.317V92.498a2.16 2.16 0 0 1 2.158-2.158h37.467a3.762 3.762 0 0 0 3.757-3.758v-4.13h4.317v4.13a3.762 3.762 0 0 0 3.758 3.758h37.467a2.16 2.16 0 0 1 2.158 2.158v10.046h-4.317v-4.13a3.761 3.761 0 0 0-3.757-3.758H62.916a3.762 3.762 0 0 0-3.758 3.758v4.13h-4.317v-4.13a3.762 3.762 0 0 0-3.757-3.758h-18.12a1.786 1.786 0 0 0 0 3.571h18.12c.103 0 .186.084.186.187v4.13h-2.293a5.601 5.601 0 0 0-5.594 5.595v8.157a5.601 5.601 0 0 0 5.594 5.595h16.046a5.601 5.601 0 0 0 5.594-5.595v-8.157a5.601 5.601 0 0 0-5.594-5.595h-2.294v-4.13c0-.103.084-.187.187-.187h31.551c.103 0 .186.084.186.187v4.13H92.36a5.601 5.601 0 0 0-5.594 5.595v8.157a5.601 5.601 0 0 0 5.594 5.595h16.046a5.601 5.601 0 0 0 5.594-5.595v-8.157a5.601 5.601 0 0 0-5.594-5.595ZM57 9.083c-.726 0-1.451.21-2.084.633L24.343 30.098a.179.179 0 0 1-.14.027.18.18 0 0 1-.119-.079l-2.187-3.281a.18.18 0 0 1-.028-.14c.01-.05.037-.09.08-.12L55.802 3.937a2.153 2.153 0 0 1 2.394 0l33.854 22.57c.043.029.07.068.08.119.01.05 0 .097-.028.14l-2.188 3.281a.18.18 0 0 1-.118.08.18.18 0 0 1-.14-.028L59.084 9.716A3.753 3.753 0 0 0 57 9.083Zm21.624 54.022a.119.119 0 0 1-.119-.119v-4.079c0-.065.053-.119.119-.119h4.198v4.317h-4.198Zm-43.248-4.317c.066 0 .119.054.119.12v4.078a.119.119 0 0 1-.119.12h-4.198v-4.318h4.198ZM21.64 106.115c1.116 0 2.023.908 2.023 2.024v8.157a2.026 2.026 0 0 1-2.023 2.024H5.594a2.026 2.026 0 0 1-2.023-2.024v-8.157c0-1.116.908-2.024 2.023-2.024H21.64Zm41.462-43.01h-4.316V50.901h4.316v12.204ZM46.954 47.211v-4.08c0-.065.053-.118.119-.118h19.854c.066 0 .12.053.12.119v4.079a.119.119 0 0 1-.12.119H47.073a.12.12 0 0 1-.12-.12Zm3.944 3.69h4.316v12.204h-4.316V50.901Zm-3.944 15.894c0-.065.053-.119.119-.119h19.854c.066 0 .12.054.12.12v4.197H46.953v-4.198Zm-7.888 12.086v-4.198c0-.066.053-.119.119-.119h35.63c.066 0 .119.053.119.119v4.198H39.066Zm27.98 29.258v8.157a2.026 2.026 0 0 1-2.023 2.024H48.977a2.026 2.026 0 0 1-2.023-2.024v-8.157c0-1.116.908-2.024 2.023-2.024h16.046c1.116 0 2.023.908 2.023 2.024Zm43.383 8.157a2.026 2.026 0 0 1-2.023 2.024H92.36a2.026 2.026 0 0 1-2.023-2.024v-8.157c0-1.116.907-2.024 2.023-2.024h16.046c1.115 0 2.023.908 2.023 2.024v8.157Z" fill="#F79009"/></svg>
